X: 42616
T: Whinny Hills Of Leitrim, The
R: slip jig
M: 9/8
K: Dmajor
FAA FAd AFD|FAA FAd B2A|FAA FAd AFD|FEB DFA B3:|
~f3 faf edB|Aff fef gfe|~f3 faf edB|AFE DFA B3:|

